X: 26804
T: Miller's Maid, The
R: reel
M: 4/4
K: Dmajor
|:B|A2 FA BcdB|A2 FA BEEB|A2 FA Beec|dABG FEE:|
c|dAFA dfaf|gfed cdec|dAFA BABc|dABG FDDc|
dAFA dfaf|gfed cd e2|defg abaf|gbag fdd||

